assets/icons/arrow.right.svg

<?xml version="1.0" encoding="UTF-8"?>
<!--Generator: Apple Native CoreSVG 232.5-->
<!DOCTYPE svg
PUBLIC "-//W3C//DTD SVG 1.1//EN"
       "http://www.w3.org/Graphics/SVG/1.1/DTD/svg11.dtd">
<svg version="1.1" xmlns="http://www.w3.org/2000/svg" xmlns:xlink="http://www.w3.org/1999/xlink" width="119.332" height="96.4717">
 <g>
  <rect height="96.4717" opacity="0" width="119.332" x="0" y="0"/>
  <path d="M119.332 48.2109C119.332 46.8662 118.784 45.6211 117.688 44.5752L74.9062 1.74316C73.6113 0.448242 72.416 0 71.1211 0C68.4316 0 66.3398 1.99219 66.3398 4.68164C66.3398 5.97656 66.7881 7.22168 67.6846 8.11816L85.1162 25.7988L108.375 47.2646L109.521 44.4258L89.9473 43.3799L4.78125 43.3799C1.99219 43.3799 0 45.3721 0 48.2109C0 51 1.99219 53.042 4.78125 53.042L89.9473 53.042L109.521 51.9463L108.375 49.1572L85.1162 70.623L67.6846 88.2539C66.8379 89.1504 66.3398 90.4453 66.3398 91.7402C66.3398 94.4297 68.4316 96.4219 71.1211 96.4219C72.416 96.4219 73.5615 95.9238 74.6572 94.9277L117.688 51.7969C118.784 50.8008 119.332 49.5557 119.332 48.2109Z" fill="#ffffff" fill-opacity="0.85"/>
 </g>
</svg>

<svg xmlns="http://www.w3.org/2000/svg" width="119.332" height="96.472"><path fill="#fff" fill-opacity=".85" d="M119.332 48.21c0-1.344-.548-2.589-1.644-3.635L74.906 1.743C73.611.448 72.416 0 71.121 0c-2.69 0-4.781 1.992-4.781 4.682 0 1.295.448 2.54 1.345 3.436l17.431 17.68 23.259 21.467 1.146-2.84-19.574-1.045H4.781C1.992 43.38 0 45.372 0 48.21c0 2.79 1.992 4.832 4.781 4.832h85.166l19.574-1.096-1.146-2.789-23.259 21.466-17.431 17.63c-.847.897-1.345 2.192-1.345 3.487 0 2.69 2.092 4.682 4.781 4.682 1.295 0 2.44-.498 3.536-1.494l43.031-43.131c1.096-.996 1.644-2.241 1.644-3.586"/></svg>
